icons/circle-chevron-right.svg

<svg xmlns="http://www.w3.org/2000/svg" width="24" height="24" viewBox="0 0 24 24">
  <path d="M12,1 C18.0751322,1 23,5.92486775 23,12 C23,18.0751322 18.0751322,23 12,23 C5.92486775,23 1,18.0751322 1,12 C1,5.92486775 5.92486775,1 12,1 Z M9.29289322,7.29289322 C8.93240926,7.65337718 8.90467972,8.22060824 9.20970461,8.61289944 L9.29289322,8.70710678 L12.585,12 L9.29289322,15.2928932 C8.93240926,15.6533772 8.90467972,16.2206082 9.20970461,16.6128994 L9.29289322,16.7071068 C9.65337718,17.0675907 10.2206082,17.0953203 10.6128994,16.7902954 L10.7071068,16.7071068 L14.7071068,12.7071068 C15.0675907,12.3466228 15.0953203,11.7793918 14.7902954,11.3871006 L14.7071068,11.2928932 L10.7071068,7.29289322 C10.3165825,6.90236893 9.68341751,6.90236893 9.29289322,7.29289322 Z"/>
</svg>

<svg xmlns="http://www.w3.org/2000/svg" viewBox="0 0 24 24">
  <path d="M12 1a11 11 0 1 1 0 22 11 11 0 0 1 0-22zM9.3 7.3a1 1 0 0 0-.1 1.3l.08.1L12.6 12l-3.3 3.3a1 1 0 0 0-.08 1.31l.08.1a1 1 0 0 0 1.32.08l.1-.08 4-4a1 1 0 0 0 .08-1.32l-.08-.1-4-4a1 1 0 0 0-1.42 0z"/>
</svg>
